icon-svg/hyundai-ioniq.svg

<svg xmlns="http://www.w3.org/2000/svg" viewBox="0 0 24 24"><path fill="#44739e" d="M19.662 21.229a1.618 1.618 0 1 0-.392.386l.38.385.394-.388Zm-.386.38-.367-.366a1.11 1.11 0 1 1 .38-.371l.365.365Zm-6.516-2.857v1.976l-2.23-1.979h-.089v.001h-.037v3.061h.531l.006-1.968 2.223 1.973.127-.003v-3.062Zm-5.266-.088a1.618 1.618 0 1 0 1.618 1.618 1.62 1.62 0 0 0-1.618-1.618m0 2.726A1.108 1.108 0 1 1 8.6 20.282a1.11 1.11 0 0 1-1.106 1.108m7.424-2.639h.531v3.06h-.531Zm-10.845 0h.531v3.06h-.531Zm-.117-4.685H7.38v3.424H3.956Zm4.066-4.011h3.424v3.424H8.022Zm-4.066 0H7.38v3.424H3.956Zm8.119-4.035h3.424v3.424h-3.424Zm-4.031 0h3.424v3.424H8.044Zm-4.065 0h3.424v3.424H3.979ZM16.09 2h3.424v3.424H16.09Zm-4.032 0h3.424v3.424h-3.424ZM8.027 2h3.424v3.424H8.027ZM3.962 2h3.424v3.424H3.962Z"/></svg>

<?xml version="1.0" encoding="UTF-8"?>
<svg width="24px" fill="#44739e" height="24px" viewBox="0 0 24 24" version="1.1" xmlns="http://www.w3.org/2000/svg" xmlns:xlink="http://www.w3.org/1999/xlink">
            <path d="m 19.662,21.229 v 0 a 1.618,1.618 0 1 0 -0.392,0.386 v 0 L 19.65,22 20.044,21.612 v 0 z m -0.386,0.38 -0.367,-0.366 a 1.11,1.11 0 1 1 0.38,-0.371 l 0.365,0.365 z M 12.76,18.752 v 1.976 l -2.23,-1.979 h -0.089 v 0.001 h -0.037 v 0.032 3.029 h 0.531 l 0.006,-1.968 2.223,1.973 0.127,-0.003 V 21.789 18.752 18.751 H 12.76 Z M 7.494,18.664 a 1.618,1.618 0 1 0 1.618,1.618 1.62,1.62 0 0 0 -1.618,-1.618 z m 0,2.726 A 1.108,1.108 0 1 1 8.6,20.282 1.109,1.109 0 0 1 7.494,21.39 Z m 7.424,-2.639001 h 0.531 v 3.06 h -0.531 z m -10.845,0 h 0.531 v 3.06 H 4.073 Z M 3.9560001,14.066 h 3.424 v 3.424 h -3.424 z M 8.0220003,10.055 H 11.446 v 3.424 H 8.0220003 Z m -4.0660002,0 h 3.424 v 3.424 h -3.424 z M 12.075,6.02 h 3.424 v 3.424 h -3.424 z m -4.0310003,0 H 11.468 V 9.444 H 8.0439997 Z m -4.0649996,0 h 3.424 v 3.424 h -3.424 z M 16.09,2 h 3.424 V 5.424 H 16.09 Z m -4.032,0 h 3.424 V 5.424 H 12.058 Z M 8.0270004,2 H 11.451 V 5.424 H 8.0270004 Z M 3.9619999,2 h 3.424 v 3.424 h -3.424 z"/>

</svg>
